X:69
C:Page 35
T:Calgarth Hornpipe,aka. MBe.69
S:Matthew Betham MS, Towcett Cumbria, 1815
O:England;Cumbria;Towcett
Z:VMP – Hugh Taylor, 2012
M:C|
L:1/8
Q:1/2=100
R:.Hornpipe
C:untitled in MS
N:William Irwin has this tune as the Calgarth Hornpipe, but in the key of F
N:Calgarth Hall is situated at Troutbeck Bridge on the shore of Windermere.
N:NB-These ‘g’ notes are written dotted: I have undotted them.
K:G
dc|B2 G2 G2 AB|c2 A2 A2 dc|Bdgf edcB|A2 D2 D2 dc|
B2 G2 G2 AB|cBcd efga|bc’ab fdef|g2 b2 “^NB”g2:|
|:ga|bgdg Bgdg|bgdg c’bag|afdf Bfdf|afdf afef|
egdg cgBg|ABcd efga|bd’ab fdef|g2 b2 “^NB”g2:|

